src/assets/images/boat.svg

<svg height="24" viewBox="0 0 22 24" width="22" xmlns="http://www.w3.org/2000/svg"><g fill="none" fill-rule="evenodd" stroke="#4d4d4d" stroke-width="1.5" transform="translate(1 1)"><g transform="translate(0 15.4)"><path d="m2.2 4.4-1.28294737-4.4h18.38273687c-.9839739 2.83629367-1.5505704 4.30296033-1.6997895 4.4" fill="#fff" stroke-linejoin="round"/><path d="m0 5.59726316c1.26094737 0 1.26094737-1.31305263 2.52189474-1.31305263s1.26094737 1.31305263 2.52189473 1.31305263c1.26094737 0 1.26094737-1.31305263 2.52189474-1.31305263s1.26094737 1.31305263 2.52189469 1.31305263c1.2609474 0 1.2609474-1.31305263 2.5218948-1.31305263s1.2609474 1.31305263 2.5218947 1.31305263c1.2609474 0 1.2609474-1.31305263 2.5218948-1.31305263 1.2609473 0 1.2609473 1.31305263 2.5218947 1.31305263" stroke-linecap="round"/></g><g fill="#fff" stroke-linejoin="round"><path d="m12 4.96v8.2399993h4.708571c-3.1390473-5.49333288-4.708571-8.2399993-4.708571-8.2399993z"/><path d="m1.76 0s.05641026 4.4.16923077 13.2h7.31076923c-4.98666667-8.8-7.48-13.2-7.48-13.2z" transform="matrix(-1 0 0 1 11 0)"/></g></g></svg>

<?xml version="1.0" encoding="UTF-8"?>
<svg width="22px" height="24px" viewBox="0 0 22 24" version="1.1" xmlns="http://www.w3.org/2000/svg" xmlns:xlink="http://www.w3.org/1999/xlink">
    <title>Group 18</title>
    <g id="Design" stroke="none" stroke-width="1" fill="none" fill-rule="evenodd">
        <g id="ГЛАВНАЯ" transform="translate(-839.000000, -4644.000000)" stroke="#4D4D4D" stroke-width="1.5">
            <g id="Инди" transform="translate(683.000000, 4093.000000)">
                <g id="Group-60" transform="translate(0.000000, 446.000000)">
                    <g id="Group-50" transform="translate(45.000000, 102.000000)">
                        <g id="Group-45" transform="translate(0.000000, 4.000000)">
                            <g id="Group-18" transform="translate(112.000000, 0.000000)">
                                <g id="Group-16" transform="translate(0.000000, 14.960000)">
                                    <g id="Group-9" transform="translate(0.000000, 0.440000)">
                                        <path d="M2.2,4.4 L0.917052632,3.63797881e-12 L19.2997895,3.63797881e-12 C18.3158156,2.83629367 17.7492191,4.30296033 17.6,4.4" id="Path" fill="#FFFFFF" stroke-linejoin="round"></path>
                                        <path d="M-3.63797881e-12,5.59726316 C1.26094737,5.59726316 1.26094737,4.28421053 2.52189474,4.28421053 C3.78284211,4.28421053 3.78284211,5.59726316 5.04378947,5.59726316 C6.30473684,5.59726316 6.30473684,4.28421053 7.56568421,4.28421053 C8.82663158,4.28421053 8.82663158,5.59726316 10.0875789,5.59726316 C11.3485263,5.59726316 11.3485263,4.28421053 12.6094737,4.28421053 C13.8704211,4.28421053 13.8704211,5.59726316 15.1313684,5.59726316 C16.3923158,5.59726316 16.3923158,4.28421053 17.6532632,4.28421053 C18.9142105,4.28421053 18.9142105,5.59726316 20.1751579,5.59726316" id="Path" stroke-linecap="round"></path>
                                    </g>
                                </g>
                                <path d="M12,4.96 C12,4.96 12,7.70666642 12,13.1999993 L16.708571,13.1999993 C13.5695237,7.70666642 12,4.96 12,4.96 Z" id="Path-42" fill="#FFFFFF" stroke-linejoin="round"></path>
                                <path d="M1.76,0 C1.76,0 1.81641026,4.4 1.92923077,13.2 L9.24,13.2 C4.25333333,4.4 1.76,0 1.76,0 Z" id="Path-42" fill="#FFFFFF" stroke-linejoin="round" transform="translate(5.500000, 6.600000) scale(-1, 1) translate(-5.500000, -6.600000) "></path>
                            </g>
                        </g>
                    </g>
                </g>
            </g>
        </g>
    </g>
</svg>
